packages/ffe-icons/icons/filled/md/reset_tv.svg

<svg xmlns="http://www.w3.org/2000/svg" height="24" viewBox="0 -960 960 960" width="24"><path d="M340.001-176.155v-43.846H172.309q-29.827 0-51.067-21.241-21.241-21.24-21.241-51.067v-455.382q0-29.827 21.241-51.067 21.24-21.241 51.067-21.241h615.382q29.827 0 51.067 21.241 21.241 21.24 21.241 51.067v197.692H488.152l62.924-62.925q8.308-8.307 8.5-20.884.193-12.576-8.5-21.268-8.692-8.693-21.076-8.693t-21.076 8.693L399.155-545.307Q388.309-534.461 388.309-520q0 14.461 10.846 25.307l109.769 109.769q8.307 8.308 20.884 8.5 12.576.193 21.268-8.5 8.693-8.692 8.693-21.076t-8.693-21.076l-62.924-62.925h371.847v197.692q0 29.827-21.241 51.067-21.24 21.241-51.067 21.241H619.999v43.846q0 15.365-10.395 25.759-10.394 10.395-25.759 10.395h-207.69q-15.365 0-25.759-10.395-10.395-10.394-10.395-25.759Z"/></svg>

<svg xmlns="http://www.w3.org/2000/svg" height="24" viewBox="0 -960 960 960" width="24"><path d="M340-176.16V-220H172.31q-29.83 0-51.07-21.24Q100-262.48 100-292.31v-455.38q0-29.83 21.24-51.07Q142.48-820 172.31-820h615.38q29.83 0 51.07 21.24Q860-777.52 860-747.69V-550H488.15l62.93-62.92q8.3-8.31 8.5-20.89.19-12.57-8.5-21.27-8.7-8.69-21.08-8.69-12.38 0-21.08 8.69L399.15-545.31q-10.84 10.85-10.84 25.31 0 14.46 10.84 25.31l109.77 109.77q8.31 8.3 20.89 8.5 12.57.19 21.27-8.5 8.69-8.7 8.69-21.08 0-12.38-8.69-21.08L488.15-490H860v197.69q0 29.83-21.24 51.07Q817.52-220 787.69-220H620v43.84q0 15.37-10.4 25.76-10.39 10.4-25.76 10.4H376.16q-15.37 0-25.76-10.4-10.4-10.39-10.4-25.76Z"/></svg>
